svgs/light/grid-2-plus.svg

<svg xmlns="http://www.w3.org/2000/svg" viewBox="0 0 512 512"><!--! Font Awesome Pro 6.4.0 by @fontawesome - https://fontawesome.com License - https://fontawesome.com/license (Commercial License) Copyright 2023 Fonticons, Inc. --><path d="M176 64H80c-8.8 0-16 7.2-16 16v96c0 8.8 7.2 16 16 16h96c8.8 0 16-7.2 16-16V80c0-8.8-7.2-16-16-16zM80 32h96c26.5 0 48 21.5 48 48v96c0 26.5-21.5 48-48 48H80c-26.5 0-48-21.5-48-48V80c0-26.5 21.5-48 48-48zm96 288H80c-8.8 0-16 7.2-16 16v96c0 8.8 7.2 16 16 16h96c8.8 0 16-7.2 16-16V336c0-8.8-7.2-16-16-16zM80 288h96c26.5 0 48 21.5 48 48v96c0 26.5-21.5 48-48 48H80c-26.5 0-48-21.5-48-48V336c0-26.5 21.5-48 48-48zM336 64c-8.8 0-16 7.2-16 16v96c0 8.8 7.2 16 16 16h96c8.8 0 16-7.2 16-16V80c0-8.8-7.2-16-16-16H336zM288 80c0-26.5 21.5-48 48-48h96c26.5 0 48 21.5 48 48v96c0 26.5-21.5 48-48 48H336c-26.5 0-48-21.5-48-48V80zm96 192c8.8 0 16 7.2 16 16v80h80c8.8 0 16 7.2 16 16s-7.2 16-16 16H400v80c0 8.8-7.2 16-16 16s-16-7.2-16-16V400H288c-8.8 0-16-7.2-16-16s7.2-16 16-16h80V288c0-8.8 7.2-16 16-16z"/></svg>

<svg xmlns="http://www.w3.org/2000/svg" viewBox="0 0 512 512"><!--! Font Awesome Pro 6.3.0 by @fontawesome - https://fontawesome.com License - https://fontawesome.com/license (Commercial License) Copyright 2023 Fonticons, Inc. --><path d="M176 32C202.5 32 224 53.49 224 80V176C224 202.5 202.5 224 176 224H80C53.49 224 32 202.5 32 176V80C32 53.49 53.49 32 80 32H176zM176 64H80C71.16 64 64 71.16 64 80V176C64 184.8 71.16 192 80 192H176C184.8 192 192 184.8 192 176V80C192 71.16 184.8 64 176 64zM176 288C202.5 288 224 309.5 224 336V432C224 458.5 202.5 480 176 480H80C53.49 480 32 458.5 32 432V336C32 309.5 53.49 288 80 288H176zM176 320H80C71.16 320 64 327.2 64 336V432C64 440.8 71.16 448 80 448H176C184.8 448 192 440.8 192 432V336C192 327.2 184.8 320 176 320zM288 80C288 53.49 309.5 32 336 32H432C458.5 32 480 53.49 480 80V176C480 202.5 458.5 224 432 224H336C309.5 224 288 202.5 288 176V80zM320 80V176C320 184.8 327.2 192 336 192H432C440.8 192 448 184.8 448 176V80C448 71.16 440.8 64 432 64H336C327.2 64 320 71.16 320 80zM384 272C392.8 272 400 279.2 400 288V368H480C488.8 368 496 375.2 496 384C496 392.8 488.8 400 480 400H400V480C400 488.8 392.8 496 384 496C375.2 496 368 488.8 368 480V400H288C279.2 400 272 392.8 272 384C272 375.2 279.2 368 288 368H368V288C368 279.2 375.2 272 384 272z"/></svg>
